icons/medal-2-fill.svg

<svg viewBox="0 0 24 24" fill="currentColor" xmlns="http://www.w3.org/2000/svg"><path d="M12.0001 8.5L14.1161 13.5875L19.6085 14.0279L15.4239 17.6125L16.7023 22.9721L12.0001 20.1L7.29777 22.9721L8.57625 17.6125L4.3916 14.0279L9.88403 13.5875L12.0001 8.5ZM8.00005 2V11H6.00005V2H8.00005ZM18.0001 2V11H16.0001V2H18.0001ZM13.0001 2V7H11.0001V2H13.0001Z"/></svg>

<svg xmlns="http://www.w3.org/2000/svg" viewBox="0 0 24 24">
    <g>
        <path fill="none" d="M0 0h24v24H0z"/>
        <path d="M12 8.5l2.116 5.088 5.492.44-4.184 3.584 1.278 5.36L12 20.1l-4.702 2.872 1.278-5.36-4.184-3.584 5.492-.44L12 8.5zM8 2v9H6V2h2zm10 0v9h-2V2h2zm-5 0v5h-2V2h2z"/>
    </g>
</svg>
